X: 5352
T: Buck In The Woods, The
R: jig
M: 6/8
K: Gmajor
|:A|BGG dGG|cAG FGA|BAG Bcd|cAF G2A|
BGG dGG|cAG FGA|d2e fdB|cAF G2:|
|:B|Add ded|cAG FGA|~d3 ded|cAB c2B|
Add ded|cAG FGA|d2e fdB|cAF G2:|

